!!!COM: Kimchet
!!!OTL: Easier - 5 Seconds Of Summer - Improvised by PKimchi
**kern
*part1
*staff1
*
*
*clefG2
*k[b-]
*F:
*M4/4
=1
!LO:TX:a:B:t= 
*MM176
!LO:TX:a:t=[quarter]=176
4r
8ddL
8ddJ
8ffL
8ff
8gg
8ggJ
=2
4aa
8cccL
8cccJ
8dddL
8eee
8ccc
8cccJ
=3
2aa
8dddL
8ccc
8aa
8ggJ
=4
4aa
4gg
16aaLL
16bb-J
8aaJ
8bb-L
8ggJ
=5
4dd
8ggL
8ggJ
8ggL
8ggJ
16ggLL
16ggJ
8ggJ
!!linebreak:original
=6
8ggL
8gg
8ff
8aaJ
4.aa
8dd
=7
4dd
4gg
8gg
4gg
8gg
=8
8ggL
8gg
8ff
8aaJ
4aa
4gg
=9
2r
8aL
8a
8a
8aJ
=10
8aL
8a
8a
8aJ
4b-
8aL
8aJ
=11
2r
8aL
8a
8a
8aJ
!!linebreak:original
=12
8aL
8a
8a
8aJ
4.b-
8a
=13
2r
8aL
8a
8a
8aJ
=14
8aL
8a
8a
8aJ
4b-
8aL
8aJ
=15
4r
4dd
8b-L
8aJ
4r
=16
4dd
(8b-L
8aJ
16gLL
16f
16a
16b-JJ)
4a
!!linebreak:original
=17
2r
8aL
8a
8a
8aJ
=18
8aL
8a
8a
8aJ
4.b-
8a
=19
2r
8aL
8a
8a
8aJ
=20
8aL
8a
8a
8aJ
4dd
8b-L
8aJ
=21
2r
8aL
8a
8a
8aJ
=22
8aL
8a
8a
8aJ
4b-
8aL
8aJ
!!linebreak:original
=23
4r
4dd
8b-L
8aJ
4r
=24
4dd
(8b-L
8aJ
16gLL
16f
16a
16b-JJ)
4a
=25
4dd 4ff
8r
2dd 2ff
8r
=26
4dd 4ff
8r
8dd 8ff
8ddL 8ff
8cc 8ee
8dd 8ff
8eeJ 8gg
=27
4ff 4aa
8r
2ff 2aa
8r
=28
8ee 8gg
4r
8ee 8gg
8ggL 8bb-
8ff 8aa
8ee 8gg
8ddJ 8ff
!!pagebreak:original
=29
4b- 4dd
8r
2b- 2dd
8r
=30
4b- 4dd
8r
8b- 8dd
8b-L 8dd
8a 8cc
8b- 8dd
8ggJ 8bb-
=31
4.ff 4.aa
2r
8b- 8dd
=32
8aaL 8ccc
8gg 8bb-
8ff 8aa
8eeJ 8gg
4gg 4bb-
4ff 4aa
=33
4r
8b-L 8dd
8b-J 8dd
8ddL 8ff
8dd 8ff
8ee 8gg
8eeJ 8gg
=34
4ff 4aa
8aaL 8ccc
8aaJ 8ccc
8bb-L 8ddd
8ccc 8eee
8aa 8ccc
8aaJ 8ccc
!!linebreak:original
=35
2ff 2aa
8bb-L 8ddd
8aa 8ccc
8ff 8aa
8eeJ 8gg
=36
4ff 4aa
4ee 4gg
16ffLL 16aa
16ggJ 16bb-
8ffJ 8aa
8ggL 8bb-
8eeJ 8gg
=37
4b- 4dd
8eeL 8gg
8eeJ 8gg
8eeL 8gg
8eeJ 8gg
16eeLL 16gg
16eeJ 16gg
8eeJ 8gg
=38
8eeL 8gg
8ee 8gg
8dd 8ff
8ffJ 8aa
4.ff 4.aa
8b- 8dd
=39
4b- 4dd
4ee 4gg
8ee 8gg
4ee 4gg
8ee 8gg
!!linebreak:original
=40
8eeL 8gg
8ee 8gg
8dd 8ff
8ffJ 8aa
4ff 4aa
4ee 4gg
=41
4r
8b-L 8dd
8b-J 8dd
8ddL 8ff
8dd 8ff
8ee 8gg
8eeJ 8gg
=42
4ff 4aa
8aaL 8ccc
8aaJ 8ccc
8bb-L 8ddd
8ccc 8eee
8aa 8ccc
8aaJ 8ccc
=43
2ff 2aa
8bb-L 8ddd
8aa 8ccc
8ff 8aa
8eeJ 8gg
=44
4ff 4aa
4ee 4gg
16ffLL 16aa
16ggJ 16bb-
8ffJ 8aa
8ggL 8bb-
8eeJ 8gg
!!linebreak:original
=45
4b- 4dd
8eeL 8gg
8eeJ 8gg
8eeL 8gg
8eeJ 8gg
16eeLL 16gg
16eeJ 16gg
8eeJ 8gg
=46
8eeL 8gg
8ee 8gg
8dd 8ff
8ffJ 8aa
4.ff 4.aa
8b- 8dd
=47
4b- 4dd
4ee 4gg
8ee 8gg
4ee 4gg
8ee 8gg
=48
8eeL 8gg
8ee 8gg
8dd 8ff
8ffJ 8aa
8ffL 8aa
8ee 8gg
8dd 8ff
8ccJ 8ee
=49
2b- 2dd
8aL
8a
8a
8aJ
!!linebreak:original
=50
4.b-
8a
2r
=51
8aL
8a
8a
8aJ
8aL
8a
8a
8aJ
=52
4dd
8b-L
8aJ
2r
=53
8aL
8a
8a
8aJ
8aL
8a
8a
8aJ
=54
4b-
8aL
8aJ
4r
4dd
!!pagebreak:original
=55
8b-L
8aJ
4r
4dd
8b-L
8aJ
=56
*M2/4
16gLL
16f
16a
16b-JJ
4a
=57
*M4/4
4dd 4ff
8r
2dd 2ff
8r
=58
4dd 4ff
8r
8dd 8ff
8ddL 8ff
8cc 8ee
8dd 8ff
8eeJ 8gg
=59
4ff 4aa
8r
2ff 2aa
8r
=60
8ee 8gg
4r
8ee 8gg
8ggL 8bb-
8ff 8aa
8ee 8gg
8ddJ 8ff
=61
4b- 4dd
8r
2b- 2dd
8r
!!linebreak:original
=62
4b- 4dd
8r
8b- 8dd
8b-L 8dd
8a 8cc
8b- 8dd
8ggJ 8bb-
=63
4.ff 4.aa
2r
8b- 8dd
=64
8aaL 8ccc
8gg 8bb-
8ff 8aa
8eeJ 8gg
12ggL 12bb-
12aa 12ccc
12ggJ 12bb-
4ff 4aa
=65
4r
8b-L 8dd
8b-J 8dd
8ddL 8ff
8dd 8ff
8ee 8gg
8eeJ 8gg
=66
4ff 4aa
8aaL 8ccc
8aaJ 8ccc
8bb-L 8ddd
8ccc 8eee
8aa 8ccc
8aaJ 8ccc
!!linebreak:original
=67
2ff 2aa
8bb-L 8ddd
8aa 8ccc
8ff 8aa
8eeJ 8gg
=68
4ff 4aa
4ee 4gg
16ffLL 16aa
16ggJ 16bb-
8ffJ 8aa
8ggL 8bb-
8eeJ 8gg
=69
4b- 4dd
8eeL 8gg
8eeJ 8gg
8eeL 8gg
8eeJ 8gg
16eeLL 16gg
16eeJ 16gg
8eeJ 8gg
=70
8eeL 8gg
8ee 8gg
8dd 8ff
8ffJ 8aa
4.ff 4.aa
8b- 8dd
=71
4b- 4dd
4ee 4gg
8ee 8gg
4ee 4gg
8ee 8gg
!!linebreak:original
=72
8eeL 8gg
8ee 8gg
8dd 8ff
8ffJ 8aa
4ff 4aa
4ee 4gg
=73
4r
8b-L 8dd
8b-J 8dd
8ddL 8ff
8dd 8ff
8ee 8gg
8eeJ 8gg
=74
4ff 4aa
8aaL 8ccc
8aaJ 8ccc
8bb-L 8ddd
8ccc 8eee
8aa 8ccc
8aaJ 8ccc
=75
2ff 2aa
8bb-L 8ddd
8aa 8ccc
8ff 8aa
8eeJ 8gg
=76
4ff 4aa
4ee 4gg
16ffLL 16aa
16ggJ 16bb-
8ffJ 8aa
8ggL 8bb-
8eeJ 8gg
!!linebreak:original
=77
4b- 4dd
8eeL 8gg
8eeJ 8gg
8eeL 8gg
8eeJ 8gg
16eeLL 16gg
16eeJ 16gg
8eeJ 8gg
=78
8eeL 8gg
8ee 8gg
8dd 8ff
8ffJ 8aa
4.ff 4.aa
8b- 8dd
=79
4b- 4dd
4ee 4gg
8ee 8gg
4ee 4gg
8ee 8gg
=80
8eeL 8gg
8ee 8gg
8dd 8ff
8ffJ 8aa
8ffL 8aa
8ee 8gg
8dd 8ff
8eeJ 8gg
=81
*M5/4
2ff 2aa
4dd 4ff
2ee 2gg
=82
4ff 4aa
2dd 2ff
2aa
!!pagebreak:original
=83
4a
2cc
4b-
8ddL 8ff
8eeJ 8gg
=84
2ff 2aa
4dd 4ff
2ee 2gg
=85
4ff 4aa
4.gg 4.bb-
4ff 4aa
4.aa
=86
8aL
8b-
8cc
8b-J
4a
4g
[4a
=87
*M4/4
2.a]
4r
=88
2.r
8ddL
8ddJ
=89
8ffL
8ff
8gg
8ggJ
4aa
8cccL
8cccJ
!!linebreak:original
=90
8dddL
8eee
8ccc
8cccJ
2aa
=91
8dddL
8ccc
8aa
8ggJ
4aa
4gg
=92
16aaLL
16bb-J
8aaJ
8bb-L
8ggJ
4dd
8ggL
8ggJ
=93
8ggL
8ggJ
16ggLL
16ggJ
8ggJ
8ggL
8gg
8ff
8aaJ
=94
4.aa
8dd
4dd
4gg
!!linebreak:original
=95
8gg
4gg
8gg
8ggL
8gg
8ff
8aaJ
=96
4aa
4gg
8b-L 8dd
8b- 8dd
8dd 8ff
8ddJ 8ff
=97
8eeL 8gg
8eeJ 8gg
4ff 4aa
8aaL 8ccc
8aa 8ccc
8bb- 8ddd
8cccJ 8eee
=98
8aaL 8ccc
8aaJ 8ccc
2ff 2aa
8bb-L 8ddd
8aaJ 8ccc
=99
8ffL 8aa
8eeJ 8gg
4ff 4aa
4ee 4gg
16ffLL 16aa
16ggJ 16bb-
8ffJ 8aa
!!linebreak:original
=100
8ggL 8bb-
8eeJ 8gg
4b- 4dd
8eeL 8gg
8ee 8gg
8ee 8gg
8eeJ 8gg
=101
16eeLL 16gg
16eeJ 16gg
8eeJ 8gg
8eeL 8gg
8eeJ 8gg
8ddL 8ff
8ffJ 8aa
[4ff [4aa
=102
8ffL] 8aa]
8b-J 8dd
4b- 4dd
4ee 4gg
8eeL 8gg
[8eeJ [8gg
=103
8eeL] 8gg]
8ee 8gg
8ee 8gg
8eeJ 8gg
8ddL 8ff
8ffJ 8aa
4ff 4aa
=104
2ee 2gg
8b-L 8dd
8b- 8dd
8dd 8ff
8ddJ 8ff
!!linebreak:original
=105
8eeL 8gg
8eeJ 8gg
4ff 4aa
8aaL 8ccc
8aa 8ccc
8bb- 8ddd
8cccJ 8eee
=106
8aaL 8ccc
8aaJ 8ccc
2ff 2aa
8bb-L 8ddd
8aaJ 8ccc
=107
8ffL 8aa
8eeJ 8gg
4ff 4aa
4ee 4gg
16ffLL 16aa
16ggJ 16bb-
8ffJ 8aa
=108
8ggL 8bb-
8eeJ 8gg
4b- 4dd
8eeL 8gg
8ee 8gg
8ee 8gg
8eeJ 8gg
=109
16eeLL 16gg
16eeJ 16gg
8eeJ 8gg
8eeL 8gg
8eeJ 8gg
8ddL 8ff
8ffJ 8aa
[4ff [4aa
!!pagebreak:original
=110
8ffL] 8aa]
8b-J 8dd
4b- 4dd
4ee 4gg
8eeL 8gg
[8eeJ [8gg
=111
8eeL] 8gg]
8ee 8gg
8ee 8gg
8eeJ 8gg
8ddL 8ff
8ff 8aa
8ff 8aa
8eeJ 8gg
=112
8ddL 8ff
8ccJ 8ee
[2.b- [2.dd
=113
1b-] 1dd]
==
*-
!!!system-decoration: {(s1,s2)}
!!!YEM: Kimchi.Co ©
